icons/square/48/dragonplayer.svg

<svg xmlns="http://www.w3.org/2000/svg" xmlns:xlink="http://www.w3.org/1999/xlink" width="48" viewBox="0 0 13.546667 13.546667" height="48">
 <defs>
  <linearGradient id="0">
   <stop stop-color="#d1465d"/>
   <stop offset="1" stop-color="#dc4c3e"/>
  </linearGradient>
  <linearGradient xlink:href="#0" id="1" gradientUnits="userSpaceOnUse" gradientTransform="matrix(0.28222223,0,0,0.28222223,5.9916667e-7,-283.45334)" y1="1050.36" x2="0" y2="1006.36"/>
 </defs>
 <g transform="matrix(0.28222223,0,0,0.28222223,0,-283.45334)">
  <path d="M 5.1875,1 C 2.8707723,1 1,2.8707723 1,5.1875 l 0,37.625 C 1,45.129228 2.8707723,47 5.1875,47 l 37.625,0 C 45.129228,47 47,45.129228 47,42.8125 L 47,5.1875 C 47,2.8707723 45.129228,1 42.8125,1 L 5.1875,1 z m 0.1875,0.25 37.25,0 c 2.291546,0 4.125,1.8334541 4.125,4.125 l 0,37.25 c 0,2.291546 -1.833454,4.125 -4.125,4.125 l -37.25,0 C 3.0834541,46.75 1.25,44.916546 1.25,42.625 l 0,-37.25 C 1.25,3.0834541 3.0834541,1.25 5.375,1.25 z" transform="translate(0,1004.3622)" opacity="0.05"/>
  <path d="M 5.375,1.25 C 3.0834541,1.25 1.25,3.0834541 1.25,5.375 l 0,37.25 c 0,2.291546 1.8334541,4.125 4.125,4.125 l 37.25,0 c 2.291546,0 4.125,-1.833454 4.125,-4.125 l 0,-37.25 C 46.75,3.0834541 44.916546,1.25 42.625,1.25 l -37.25,0 z m 0.21875,0.25 36.8125,0 C 44.672614,1.5 46.5,3.3273859 46.5,5.59375 l 0,36.8125 C 46.5,44.672614 44.672614,46.5 42.40625,46.5 l -36.8125,0 C 3.3273859,46.5 1.5,44.672614 1.5,42.40625 l 0,-36.8125 C 1.5,3.3273859 3.3273859,1.5 5.59375,1.5 z" transform="translate(0,1004.3622)" opacity="0.1"/>
  <path d="M 5.59375,1.5 C 3.3273859,1.5 1.5,3.3273859 1.5,5.59375 l 0,36.8125 C 1.5,44.672614 3.3273859,46.5 5.59375,46.5 l 36.8125,0 C 44.672614,46.5 46.5,44.672614 46.5,42.40625 l 0,-36.8125 C 46.5,3.3273859 44.672614,1.5 42.40625,1.5 l -36.8125,0 z m 0.09375,0.125 36.625,0 c 2.253773,0 4.0625,1.8087269 4.0625,4.0625 l 0,36.625 c 0,2.253773 -1.808727,4.0625 -4.0625,4.0625 l -36.625,0 c -2.2537731,0 -4.0625,-1.808727 -4.0625,-4.0625 l 0,-36.625 C 1.625,3.4337269 3.4337269,1.625 5.6875,1.625 z" transform="translate(0,1004.3622)" opacity="0.2"/>
  <path d="M 5.6875,1.625 C 3.4337269,1.625 1.625,3.4337269 1.625,5.6875 l 0,36.625 c 0,2.253773 1.8087269,4.0625 4.0625,4.0625 l 36.625,0 c 2.253773,0 4.0625,-1.808727 4.0625,-4.0625 l 0,-36.625 c 0,-2.2537731 -1.808727,-4.0625 -4.0625,-4.0625 l -36.625,0 z m 0.09375,0.125 36.4375,0 c 2.241182,0 4.03125,1.7900679 4.03125,4.03125 l 0,36.4375 c 0,2.241182 -1.790068,4.03125 -4.03125,4.03125 l -36.4375,0 C 3.5400679,46.25 1.75,44.459932 1.75,42.21875 l 0,-36.4375 C 1.75,3.5400679 3.5400679,1.75 5.78125,1.75 z" transform="translate(0,1004.3622)" opacity="0.3"/>
  <path d="M 5.78125,1.75 C 3.5400679,1.75 1.75,3.5400679 1.75,5.78125 l 0,36.4375 c 0,2.241182 1.7900679,4.03125 4.03125,4.03125 l 36.4375,0 c 2.241182,0 4.03125,-1.790068 4.03125,-4.03125 l 0,-36.4375 C 46.25,3.5400679 44.459932,1.75 42.21875,1.75 l -36.4375,0 z m 0.125,0.125 36.1875,0 c 2.228591,0 4.03125,1.802659 4.03125,4.03125 l 0,36.1875 c 0,2.228591 -1.802659,4.03125 -4.03125,4.03125 l -36.1875,0 C 3.677659,46.125 1.875,44.322341 1.875,42.09375 l 0,-36.1875 C 1.875,3.677659 3.677659,1.875 5.90625,1.875 z" transform="translate(0,1004.3622)" opacity="0.4"/>
  <rect rx="4.02" y="1006.24" x="1.875" height="44.25" width="44.25" opacity="0.5"/>
 </g>
 <rect rx="1.129" y="0.564" x="0.564" height="12.418" width="12.418" fill="url(#1)"/>
 <path d="M 24 9 C 15.690655 9 9 15.690655 9 24 C 9 32.309345 15.690655 39 24 39 C 32.309345 39 39 32.309345 39 24 C 39 15.690655 32.309345 9 24 9 z M 19 14 L 34 24 L 19 34 L 19 14 z " transform="scale(0.28222223,0.28222223)" fill="#f0f0f0" fill-rule="evenodd"/>
</svg>

<svg width="48" height="48" viewBox="0 0 13.547 13.547" xmlns="http://www.w3.org/2000/svg" xmlns:xlink="http://www.w3.org/1999/xlink">
 <defs>
  <linearGradient id="1" x2="0" y1="1050.4" y2="1006.4" gradientTransform="matrix(.28222 0 0 .28222 5.9917e-7 -283.45)" gradientUnits="userSpaceOnUse">
   <stop stop-color="#d1465d" offset="0"/>
   <stop stop-color="#dc4c3e" offset="1"/>
  </linearGradient>
 </defs>
 <g transform="matrix(.28222 0 0 .28222 0 -283.45)">
  <path transform="translate(0 1004.4)" d="m5.1875 1c-2.3167 0-4.1875 1.8708-4.1875 4.1875v37.625c0 2.3167 1.8708 4.1875 4.1875 4.1875h37.625c2.3167 0 4.1875-1.8708 4.1875-4.1875v-37.625c0-2.3167-1.8708-4.1875-4.1875-4.1875h-37.625zm0.1875 0.25h37.25c2.2915 0 4.125 1.8335 4.125 4.125v37.25c0 2.2915-1.8335 4.125-4.125 4.125h-37.25c-2.2915 0-4.125-1.8335-4.125-4.125v-37.25c0-2.2915 1.8335-4.125 4.125-4.125z" opacity=".05"/>
  <path transform="translate(0 1004.4)" d="m5.375 1.25c-2.2915 0-4.125 1.8335-4.125 4.125v37.25c0 2.2915 1.8335 4.125 4.125 4.125h37.25c2.2915 0 4.125-1.8335 4.125-4.125v-37.25c0-2.2915-1.8335-4.125-4.125-4.125h-37.25zm0.21875 0.25h36.812c2.2664 0 4.0938 1.8274 4.0938 4.0938v36.812c0 2.2664-1.8274 4.0938-4.0938 4.0938h-36.812c-2.2664 0-4.0938-1.8274-4.0938-4.0938v-36.812c0-2.2664 1.8274-4.0938 4.0938-4.0938z" opacity=".1"/>
  <path transform="translate(0 1004.4)" d="m5.5938 1.5c-2.2664 0-4.0938 1.8274-4.0938 4.0938v36.812c0 2.2664 1.8274 4.0938 4.0938 4.0938h36.812c2.2664 0 4.0938-1.8274 4.0938-4.0938v-36.812c0-2.2664-1.8274-4.0938-4.0938-4.0938h-36.812zm0.09375 0.125h36.625c2.2538 0 4.0625 1.8087 4.0625 4.0625v36.625c0 2.2538-1.8087 4.0625-4.0625 4.0625h-36.625c-2.2538 0-4.0625-1.8087-4.0625-4.0625v-36.625c0-2.2538 1.8087-4.0625 4.0625-4.0625z" opacity=".2"/>
  <path transform="translate(0 1004.4)" d="m5.6875 1.625c-2.2538 0-4.0625 1.8087-4.0625 4.0625v36.625c0 2.2538 1.8087 4.0625 4.0625 4.0625h36.625c2.2538 0 4.0625-1.8087 4.0625-4.0625v-36.625c0-2.2538-1.8087-4.0625-4.0625-4.0625h-36.625zm0.09375 0.125h36.438c2.2412 0 4.0312 1.7901 4.0312 4.0312v36.438c0 2.2412-1.7901 4.0312-4.0312 4.0312h-36.438c-2.2412 0-4.0312-1.7901-4.0312-4.0312v-36.438c0-2.2412 1.7901-4.0312 4.0312-4.0312z" opacity=".3"/>
  <path transform="translate(0 1004.4)" d="m5.7812 1.75c-2.2412 0-4.0312 1.7901-4.0312 4.0312v36.438c0 2.2412 1.7901 4.0312 4.0312 4.0312h36.438c2.2412 0 4.0312-1.7901 4.0312-4.0312v-36.438c0-2.2412-1.7901-4.0312-4.0312-4.0312h-36.438zm0.125 0.125h36.188c2.2286 0 4.0312 1.8027 4.0312 4.0312v36.188c0 2.2286-1.8027 4.0312-4.0312 4.0312h-36.188c-2.2286 0-4.0312-1.8027-4.0312-4.0312v-36.188c0-2.2286 1.8027-4.0312 4.0312-4.0312z" opacity=".4"/>
  <rect x="1.875" y="1006.2" width="44.25" height="44.25" rx="4.02" opacity=".5"/>
 </g>
 <rect x=".564" y=".564" width="12.418" height="12.418" rx="1.129" fill="url(#1)"/>
 <path transform="scale(.28222)" d="m24 9c-8.3093 0-15 6.6907-15 15s6.6907 15 15 15 15-6.6907 15-15-6.6907-15-15-15zm-5 5 15 10-15 10v-20z" fill="#f0f0f0" fill-rule="evenodd"/>
</svg>
